X:182
T:Banks of the Dee. Le4.182
Q:3/8=100
T:Caledonian Quadrilles #3. Le4.028
L:1/8
B:L.Leadley MS#4 c1850
Z:vmp.Mike Hicken 2016 www.village-music-project.org.uk
C:Air
N:
M:6/8
K:A
!f!E| (EF).G (AB).c|(df).e (dc).B|(cA).F (EF).A|(cd).B A2E|
(EF).G (AB).c|(df).e (dc).B|(cA).F (EF).A|(cd).B A2 "_Fine":|
d|c2d e2e|(fd).f (ec).A|(Ac).e (fg).a|(Ac).B (AF).E|
(df).d (ce).c|(BA).B (cA).F|(AF).E (EF).A|(cd).B A2 ||
d|c2d (ed).e|(fd).f (ec).A|(Ac).e (fg).a|(Ac).B (AF).E|
(df).d (ce).c|(BA).B (cA).F|(AF).E (EF).A|(cd).B A2 "_D.C."|]

